svgs/youtube_vanced.svg

<svg xmlns="http://www.w3.org/2000/svg" width="192" height="192" fill="none" stroke="#000" stroke-width="12" xmlns:v="https://vecta.io/nano"><path d="M170 96c0-45-4.962-49.999-50-50H96 72c-45.038.001-50 5-50 50s4.962 49.999 50 50h24 24c45.038-.001 50-5 50-50z"/><path d="M82 74l34 22-34 22" stroke-linecap="round" stroke-linejoin="round"/></svg>

<svg width="192" height="192" viewBox="0 0 192 192" fill="none" xmlns="http://www.w3.org/2000/svg">
<path d="M170 96C170 51 165.038 46.0011 120 46L96 46L72 46C26.9618 46.0011 22 51 22 96C22 141 26.9618 145.999 72 146L96 146L120 146C165.038 145.999 170 141 170 96Z" stroke="black" stroke-width="12"/>
<path d="M82 74L116 96L82 118" stroke="black" stroke-width="12" stroke-linecap="round" stroke-linejoin="round"/>
</svg>
